Pods/ProtonCore-UIFoundations/libraries/UIFoundations/Sources/Assets.xcassets/Images/IconSet/ic-arrows-left-right.imageset/ic-arrows-left-right.svg

<svg width="24" height="24" viewBox="0 0 24 24" fill="none" xmlns="http://www.w3.org/2000/svg">
<path fill-rule="evenodd" clip-rule="evenodd" d="M8.03033 6.21967C8.32322 6.51256 8.32322 6.98744 8.03033 7.28033L4.06066 11.25H19.9393L15.9697 7.28033C15.6768 6.98744 15.6768 6.51256 15.9697 6.21967C16.2626 5.92678 16.7374 5.92678 17.0303 6.21967L22.2803 11.4697C22.5732 11.7626 22.5732 12.2374 22.2803 12.5303L17.0303 17.7803C16.7374 18.0732 16.2626 18.0732 15.9697 17.7803C15.6768 17.4874 15.6768 17.0126 15.9697 16.7197L19.9393 12.75H4.06066L8.03033 16.7197C8.32322 17.0126 8.32322 17.4874 8.03033 17.7803C7.73744 18.0732 7.26256 18.0732 6.96967 17.7803L1.71967 12.5303C1.42678 12.2374 1.42678 11.7626 1.71967 11.4697L6.96967 6.21967C7.26256 5.92678 7.73744 5.92678 8.03033 6.21967Z" fill="#0C0C14"/>
</svg>

<svg xmlns="http://www.w3.org/2000/svg" width="24" height="24" viewBox="0 0 24 24">
  <g class="ic-arrows-left-right">
    <path fill-rule="evenodd" d="M8.03 6.22a.75.75 0 0 1 0 1.06l-3.97 3.97h15.88l-3.97-3.97a.75.75 0 0 1 1.06-1.06l5.25 5.25a.75.75 0 0 1 0 1.06l-5.25 5.25a.75.75 0 1 1-1.06-1.06l3.97-3.97H4.06l3.97 3.97a.75.75 0 1 1-1.06 1.06l-5.25-5.25a.75.75 0 0 1 0-1.06l5.25-5.25a.75.75 0 0 1 1.06 0Z" class="Icon"/>
  </g>
</svg>
